X: 19
T: T'meiskin
N: Derived from Jap3019-Tmeiskin.krn
C: Jean Japart
%%abc-version 2.0
%%abcx-abcm2ps-target-version 5.9.1 (29 Sep 2008)
%%abc-creator hum2abc beta
%%abcx-conversion-date 2019/02/16 20:40:05
%%abc-edited-by Jesse Rodin
%%abc-edited-by Chris Gage 09-25-2013
%%abcx-initial-encoding-date 2013/10/20/
%%humdrum-veritas 203485048
%%humdrum-veritas-data 3842047326
%%linebreak <none>
%%barnumbers 0
L: 1/4
M: 2/1
Q: 1/2=120
V: 1 clef=treble
V: 2 clef=treble-8
V: 3 clef=bass
K: F
[V:1] G4G2G2 | 
[V:2] z8 | 
[V:3] G,,6A,,2 | 
[V:1] G8 | 
[V:2] G4G2G2 | 
[V:3] B,,2C,4B,,2 | 
[V:1] G8 | 
[V:2] G8 | 
[V:3] C,6B,,A,, | 
[V:1] B6AG | 
[V:2] G8 | 
[V:3] G,,8 | 
[V:1] F8 | 
[V:2] B6AG | 
[V:3] z8 | 
[V:1] A4A4 | 
[V:2] F8 | 
[V:3] D,6C,B,, | 
[V:1] c6B2 | 
[V:2] A4A4 | 
[V:3] A,,4F,4- | 
[V:1] A4G4- | 
[V:2] c6B2 | 
[V:3] F,2E,2G,4 | 
[V:1] G4^F4 | 
[V:2] A4A4 | 
[V:3] D,4D,4 | 
[V:1] G8 | 
[V:2] G8- | 
[V:3] _E,6D,C, | 
[V:1] z4G4 | 
[V:2] G8 | 
[V:3] B,,2C,4B,,A,, | 
[V:1] B4B2B2 | 
[V:2] z4G4 | 
[V:3] G,,4G,4- | 
[V:1] B4A4- | 
[V:2] B2B2c4 | 
[V:3] G,4F,4 | 
[V:1] A4d4- | 
[V:2] d4f4 | 
[V:3] D,8 | 
[V:1] d4^c4 | 
[V:2] e4e4 | 
[V:3] A,8 | 
[V:1] d6c2 | 
[V:2] d8- | 
[V:3] B,6A,2 | 
[V:1] B4A4 | 
[V:2] d8 | 
[V:3] G,4F,4 | 
[V:1] B6AG | 
[V:2] z4d4 | 
[V:3] G,6F,E, | 
[V:1] F2B4A2 | 
[V:2] d4c2c2 | 
[V:3] D,3B,,F,4 | 
[V:1] B2G4A2- | 
[V:2] B4c2c2 | 
[V:3] G,2E,4F,2- | 
[V:1] AG^FEF4 | 
[V:2] A4A4 | 
[V:3] F,E,D,C,D,4 | 
[V:1] G8 | 
[V:2] G8- | 
[V:3] B,,3C,D,2_E,2- | 
[V:1] z4D4 | 
[V:2] G8 | 
[V:3] E,2D,C,B,,4 | 
[V:1] E4E4 | 
[V:2] z4G4 | 
[V:3] C,4C,4 | 
[V:1] D3EF2G2- | 
[V:2] B4B4 | 
[V:3] B,,3C,D,2_E,2- | 
[V:1] G2E4A2 | 
[V:2] c4c4 | 
[V:3] E,2C,4F,2 | 
[V:1] F2B4A2- | 
[V:2] d6c2 | 
[V:3] D,2G,3D,F,2 | 
[V:1] A2GFG4 | 
[V:2] B8 | 
[V:3] G,2E,2G,4 | 
[V:1] A4z2A2 | 
[V:2] A8 | 
[V:3] D,4F,4 | 
[V:1] c6B2 | 
[V:2] z4A4 | 
[V:3] F,4F,4 | 
[V:1] A4G2A2- | 
[V:2] c4c4 | 
[V:3] F,4E,2F,2- | 
[V:1] A2c3BA2- | 
[V:2] c4c4 | 
[V:3] F,2A,3G,F,2- | 
[V:1] A2GFE4 | 
[V:2] c4c2c2 | 
[V:3] F,2E,D,A,4 | 
[V:1] D8 | 
[V:2] d8- | 
[V:3] B,8- | 
[V:1] z4D4 | 
[V:2] d8 | 
[V:3] B,8- | 
[V:1] F6G2 | 
[V:2] z4d4 | 
[V:3] B,6A,G, | 
[V:1] A2B2c4- | 
[V:2] f6e2 | 
[V:3] F,8 | 
[V:1] c2B2B4- | 
[V:2] d4B4 | 
[V:3] G,8 | 
[V:1] B4A4 | 
[V:2] c4c4 | 
[V:3] F,8 | 
[V:1] B8 | 
[V:2] B8- | 
[V:3] B,,6C,D, | 
[V:1] z4F4 | 
[V:2] B8 | 
[V:3] _E,2D,3C,B,,A,, | 
[V:1] B4A4 | 
[V:2] z4F4 | 
[V:3] G,,4D,4 | 
[V:1] G4G4 | 
[V:2] B8 | 
[V:3] _E,8 | 
[V:1] c6B2 | 
[V:2] A4G4 | 
[V:3] F,4G,4 | 
[V:1] A2B4A2 | 
[V:2] d6c2 | 
[V:3] D,2G,3D,F,2 | 
[V:1] G2B3AG2- | 
[V:2] B4c4 | 
[V:3] G,4C,4 | 
[V:1] G2^FEF4 | 
[V:2] A8 | 
[V:3] D,8 | 
[V:1] G8 |]  
[V:2] G8 |]  
[V:3] G,,8 |]  



